X:492
T: Shangqu gaoshan wang pingchuan
N: C1151
O: China,Qinghai
S: Zhongguo Minge Xuan, S. 274]
R: Shange, Hua'r]
M: 4/4
L: 1/32
K: Bb
c8c4c4c2B2G3FF8 | G2B2c4c8f12f2c2 |
c2B2c2B2G8z8G4F4 | G2B2c12c12f4 | f24z8 |
C6F2F6F2G2B2c12 | c4c8f4f12f2c2 |
c8c2B2c2B2G4z4G6B2 | c12f4c2B2c2B2G8 | F8F24

